Origami/64x64/apps/inkscape.svg

<svg width="64" height="64" version="1" xmlns="http://www.w3.org/2000/svg">
 <path d="m4.035918 32.699626c-0.078 0.39-0.1231999 0.784-0.1289999 1.178-4e-4 0.026 0 0.084 0 0.11-2e-4 4.579998 11.590395 0.609999 13.761794 5.241997 0.257-0.309999 0.3858-0.691999 0.285-1.201999-1.099-5.569998-12.633795-1.715999-13.917794-5.327998zm55.963975 0.452c-0.226 0.994-1.016 1.835999-3.749998 3.117999-9.311996 2.565999-12.251995 1.813999-12.069995 4.393998 6e-3 0.38 0.066 0.715999 0.164 1.023999 0.728-1.443999 4.035998-1.247999 11.905995-3.417998 3.721998-1.745999 3.853998-2.673999 3.839998-4.281998v-0.11c-4e-3 -0.242-0.056-0.484-0.09-0.726zm-48.715978 10.785995c-0.2224 0.278-0.3556 0.614-0.3556 1.03 0 3.699998 10.432595 1.283999 13.746594 4.137998 0.372-0.45 0.533999-1.016 0.19-1.851999-2.779999-2.783999-11.744395-1.008-13.580994-3.315999zm42.623981 0.418c-0.54 0.338-0.936 0.86-0.844 1.709999 2.553999 1.072 6.449997 1.925999 6.913997-0.218 0.13-0.595999-2e-3 -1.059999-0.284-1.409999-0.918 1.195999-3.595998 0.706-5.785997-0.082zm-5.819998 3.597998c-1.693999 2.785999-8.889996 2.687999-10.495995 4.345998-0.736 0.76-0.406 1.35 0.112 1.91 2.021999-1.772 10.685995-1.474 10.749995-5.505998-0.092-0.278-0.224-0.518-0.366-0.75zm-31.831985 3.111999c-1.5066 0.8-2.702799 1.449999-4.449198 0.798-0.0542-0.02-0.0804-0.05-0.129-0.072-0.8784 0.741999-1.1078 1.607999 0.129 2.071999 1.809999 0.675999 3.022598-0.04 4.609397-0.88 1.5868-0.839999 1.5404-0.991999 1.4258-1.315999-0.1374 0.028-0.7748-0.31-1.585999-0.602zm5.796397 1.953999c-0.412 0.422-0.63 0.944-0.37 1.721999 1.817999 1.878 5.907997 0.814 6.693997 3.843999 0.898 3.461998 6.773997 2.863998 10.203995 0.328 0.742-0.766 0.404-1.36-0.125999-1.926-3.443999 2.463999-9.189996 3.019999-10.077996-0.401999-0.738-2.849999-4.377998-2.108-6.323997-3.565999z" style="fill-rule:evenodd;opacity:.2"/>
 <path d="m31.998905 4.0002397c-1.602099 0-3.161598 0.5990597-4.389398 1.8666991l-21.83599 22.50999c-1.2032994 1.242439-1.8415991 2.880598-1.8654991 4.501998-3.6e-4 0.0246 0 0.0826 0 0.1096-2.28e-4 4.823997 12.882194 0.1412 14.045994 6.039397 0.629979 3.192198-7.022997 1.729659-7.022997 4.941198 0 3.767598 10.832595 1.176639 13.936394 4.282398 1.274999 3.105798-4.146998 2.604399-3.182199 5.490397 1.818179 1.877399 5.908197 0.81278 6.693797 3.843199 0.8974 3.461598 6.775197 2.864398 10.205395 0.328739 1.81816-1.877319-2.805798-2.734398-0.987539-4.611798 1.818099-1.877339 10.798795-1.497619 10.863795-5.599997-0.85822-2.577199-4.227998-2.993399-4.279798-6.039397-0.1808-2.579599 2.759599-1.825059 12.070795-4.392198 3.723198-1.74592 3.854998-2.674599 3.840798-4.282398-3e-4 -0.0318 0-0.0754 0-0.1094-0.0212-1.62136-0.772-3.259599-1.975199-4.501998l-21.725991-22.50999c-1.227699-1.2677594-2.787198-1.8666791-4.389398-1.8666791zm25.457989 38.541982c-0.44376-0.014-0.89134 0.0212-1.207079 0.1094-0.59516 0.1716-3.414599 0.27192-3.182399 2.415799 2.554399 1.07142 6.449197 1.924259 6.913197-0.2193 0.3485-1.607459-1.19246-2.256599-2.523999-2.305799zm-43.56398 7.137397c-0.24786 0.0282-0.41614 0.127-0.65838 0.2193-1.937219 0.73706-3.2363987 2.287399-1.426579 2.964799 1.810099 0.677319 3.022198-0.0386 4.608797-0.87846 1.5869-0.84034 1.5413-0.993459 1.42656-1.317619-0.21998 0.044-1.662899-0.8547-3.182199-0.98832-0.25318-0.0212-0.52038-0.0282-0.768179 0z" style="fill-rule:evenodd;fill:#4f4f4f"/>
 <path d="m 32.433582,11 c 1.64224,0.01397 6.142229,5.582903 10.157162,9.753415 C 43.72008,22.268783 42,24 42,24 l -8,-5 -4,5 -3,-4 -2,7 -6,-3.506831 10.593988,-11.287426 c 0.695277,-0.708751 1.227689,-1.218019 2.839514,-1.205484 z" style="fill-rule:evenodd;opacity:.2"/>
 <path d="m 32.433582,10 c 1.64224,0.01397 6.142229,5.582903 10.157162,9.753415 C 43.72008,21.268783 42,23 42,23 l -8,-5 -4,5 -3,-4 -2,7 -6,-3.506831 10.593988,-11.287426 c 0.695277,-0.708751 1.227689,-1.218019 2.839514,-1.205484 z" style="fill-rule:evenodd;fill:#ffffff"/>
 <path d="m31.998047 4c-1.602099 0-3.160872 0.5995481-4.388672 1.8671875l-21.835938 22.509766c-1.2032994 1.242439-1.8413344 2.880553-1.8652344 4.501953-3.6e-4 0.0246 0 0.082375 0 0.109375-6.1e-6 0.129982 0.0130313 0.250618 0.03125 0.367188 0.1389106-1.445714 0.7602899-2.869897 1.8339844-3.978516l21.835938-22.509766c1.2278-1.2676394 2.786573-1.8671875 4.388672-1.8671875h0.003906c1.6022 0 3.160973 0.5994281 4.388672 1.8671875l21.726563 22.509766c1.142763 1.179994 1.8699 2.717271 1.958984 4.257813 0.013767-0.205348 0.017643-0.418002 0.015625-0.646485-3e-4 -0.0318 0-0.075375 0-0.109375-0.0212-1.62136-0.771411-3.259554-1.974609-4.501953l-21.726563-22.509766c-1.227699-1.2677594-2.786472-1.8671875-4.388672-1.8671875h-0.003906zm-14.099609 35.826172c-0.751029 2.142942-6.966797 1.243769-6.966797 4.142578 0 0.179994 0.0307 0.341857 0.078125 0.494141 0.780871-2.548411 7.537059-1.425228 6.943359-4.433594-0.014102-0.07147-0.037188-0.134727-0.054687-0.203125zm26.318359 2.240234c-0.034103 0.179044-0.050968 0.370113-0.035156 0.595703 0.04983 2.930161 3.162828 3.433977 4.164062 5.761719 0.070625-0.224235 0.111146-0.464637 0.115235-0.722656-0.818279-2.457256-3.912325-2.954026-4.244141-5.634766zm13.240234 0.476563c-0.44376-0.014-0.891292 0.021175-1.207031 0.109375-0.59516 0.1716-3.413841 0.272136-3.181641 2.416015 0.042555 0.017849 0.09149 0.033067 0.134766 0.050782 0.55832-1.229018 2.556293-1.32535 3.046875-1.466797 0.315739-0.0882 0.763271-0.123375 1.207031-0.109375 1.04274 0.038529 2.200574 0.45196 2.492188 1.398437 0.009108-0.032623 0.023862-0.059618 0.03125-0.09375 0.3485-1.607459-1.191899-2.255487-2.523438-2.304687zm-32.480469 7.070312c-0.571188 1.640941-3.949012 1.76425-3.316406 4.013672 0.560373-1.611991 3.910141-1.749838 3.316406-4.013672zm-11.083984 0.066407c-0.24786 0.028199-0.415963 0.12645-0.658203 0.21875-1.580989 0.601523-2.735101 1.745362-2.123047 2.513671 0.3378-0.567051 1.14974-1.143354 2.123047-1.513671 0.24224-0.0923 0.410343-0.190551 0.658203-0.21875 0.247799-0.0282 0.514398-0.021201 0.767578 0 1.055768 0.092853 2.049227 0.544048 2.646485 0.802734 0.666252-0.419685 0.623789-0.569568 0.537109-0.814453-0.21998 0.044-1.664294-0.854661-3.183594-0.988281-0.25318-0.021201-0.519779-0.0282-0.767578 0zm23.417969 5.003906c-0.632404 1.132302 1.054081 1.897703 1.560547 2.849609 0.632348-1.132257-1.054109-1.89768-1.560547-2.849609z" style="fill-rule:evenodd;fill:#ffffff;opacity:.1"/>
</svg>

<svg xmlns="http://www.w3.org/2000/svg" width="64" height="64" version="1">
 <path style="opacity:0.2;fill-rule:evenodd" d="m 4.035918,32.699626 c -0.078,0.39 -0.1231999,0.784 -0.1289999,1.178 -4e-4,0.026 0,0.084 0,0.11 -2e-4,4.579998 11.5903949,0.609999 13.7617939,5.241997 0.257,-0.309999 0.3858,-0.691999 0.285,-1.201999 -1.099,-5.569998 -12.6337946,-1.715999 -13.917794,-5.327998 z m 55.963975,0.452 c -0.226,0.994 -1.016,1.835999 -3.749998,3.117999 -9.311996,2.565999 -12.251995,1.813999 -12.069995,4.393998 0.006,0.38 0.066,0.715999 0.164,1.023999 0.728,-1.443999 4.035998,-1.247999 11.905995,-3.417998 3.721998,-1.745999 3.853998,-2.673999 3.839998,-4.281998 l 0,-0.11 c -0.004,-0.242 -0.056,-0.484 -0.09,-0.726 z M 11.283915,43.937621 c -0.2224,0.278 -0.3556,0.614 -0.3556,1.03 0,3.699998 10.432595,1.283999 13.746594,4.137998 0.372,-0.45 0.533999,-1.016 0.19,-1.851999 -2.779999,-2.783999 -11.744395,-1.008 -13.580994,-3.315999 z m 42.623981,0.418 c -0.54,0.338 -0.936,0.86 -0.844,1.709999 2.553999,1.072 6.449997,1.925999 6.913997,-0.218 0.13,-0.595999 -0.002,-1.059999 -0.284,-1.409999 -0.918,1.195999 -3.595998,0.706 -5.785997,-0.082 z m -5.819998,3.597998 c -1.693999,2.785999 -8.889996,2.687999 -10.495995,4.345998 -0.736,0.76 -0.406,1.35 0.112,1.91 2.021999,-1.772 10.685995,-1.474 10.749995,-5.505998 -0.092,-0.278 -0.224,-0.518 -0.366,-0.75 z m -31.831985,3.111999 c -1.5066,0.8 -2.702799,1.449999 -4.449198,0.798 -0.0542,-0.02 -0.0804,-0.05 -0.129,-0.072 -0.8784,0.741999 -1.1078,1.607999 0.129,2.071999 1.809999,0.675999 3.022598,-0.04 4.609397,-0.88 1.5868,-0.839999 1.5404,-0.991999 1.4258,-1.315999 -0.1374,0.028 -0.7748,-0.31 -1.585999,-0.602 z m 5.796397,1.953999 c -0.412,0.422 -0.63,0.944 -0.37,1.721999 1.817999,1.878 5.907997,0.814 6.693997,3.843999 0.898,3.461998 6.773997,2.863998 10.203995,0.328 0.742,-0.766 0.404,-1.36 -0.125999,-1.926 -3.443999,2.463999 -9.189996,3.019999 -10.077996,-0.401999 -0.738,-2.849999 -4.377998,-2.108 -6.323997,-3.565999 z"/>
 <path style="fill:#4f4f4f;fill-rule:evenodd" d="m 31.998905,4.0002397 c -1.602099,0 -3.161598,0.5990597 -4.389398,1.8666991 L 5.7735172,28.376929 c -1.2032994,1.242439 -1.8415991,2.880598 -1.8654991,4.501998 -3.6e-4,0.0246 0,0.0826 0,0.1096 -2.28e-4,4.823997 12.8821939,0.1412 14.0459939,6.039397 0.629979,3.192198 -7.022997,1.729659 -7.022997,4.941198 0,3.767598 10.832595,1.176639 13.936394,4.282398 1.274999,3.105798 -4.146998,2.604399 -3.182199,5.490397 1.818179,1.877399 5.908197,0.81278 6.693797,3.843199 0.8974,3.461598 6.775197,2.864398 10.205395,0.328739 1.81816,-1.877319 -2.805798,-2.734398 -0.987539,-4.611798 1.818099,-1.877339 10.798795,-1.497619 10.863795,-5.599997 -0.85822,-2.577199 -4.227998,-2.993399 -4.279798,-6.039397 -0.1808,-2.579599 2.759599,-1.825059 12.070795,-4.392198 3.723198,-1.74592 3.854998,-2.674599 3.840798,-4.282398 -3e-4,-0.0318 0,-0.0754 0,-0.1094 -0.0212,-1.62136 -0.772,-3.259599 -1.975199,-4.501998 L 36.391263,5.8666788 C 35.163564,4.5989194 33.604065,3.9999997 32.001865,3.9999997 Z M 57.456894,42.542222 c -0.44376,-0.014 -0.89134,0.0212 -1.207079,0.1094 -0.59516,0.1716 -3.414599,0.27192 -3.182399,2.415799 2.554399,1.07142 6.449197,1.924259 6.913197,-0.2193 0.3485,-1.607459 -1.19246,-2.256599 -2.523999,-2.305799 z m -43.56398,7.137397 c -0.24786,0.0282 -0.41614,0.127 -0.65838,0.2193 -1.937219,0.73706 -3.2363987,2.287399 -1.426579,2.964799 1.810099,0.677319 3.022198,-0.0386 4.608797,-0.87846 1.5869,-0.84034 1.5413,-0.993459 1.42656,-1.317619 -0.21998,0.044 -1.662899,-0.8547 -3.182199,-0.98832 -0.25318,-0.0212 -0.52038,-0.0282 -0.768179,0 z"/>
 <path style="opacity:0.2;fill-rule:evenodd" d="m 32.433582,11 c 1.64224,0.01397 6.142229,5.582903 10.157162,9.753415 C 43.72008,22.268783 42,24 42,24 l -8,-5 -4,5 -3,-4 -2,7 -6,-3.506831 10.593988,-11.287426 c 0.695277,-0.708751 1.227689,-1.218019 2.839514,-1.205484 z"/>
 <path style="fill:#ffffff;fill-rule:evenodd" d="m 32.433582,10 c 1.64224,0.01397 6.142229,5.582903 10.157162,9.753415 C 43.72008,21.268783 42,23 42,23 l -8,-5 -4,5 -3,-4 -2,7 -6,-3.506831 10.593988,-11.287426 c 0.695277,-0.708751 1.227689,-1.218019 2.839514,-1.205484 z"/>
 <path style="fill:#ffffff;fill-rule:evenodd;opacity:0.1" d="M 31.998047 4 C 30.395948 4 28.837175 4.5995481 27.609375 5.8671875 L 5.7734375 28.376953 C 4.5701381 29.619392 3.9321031 31.257506 3.9082031 32.878906 C 3.9078431 32.903506 3.9082031 32.961281 3.9082031 32.988281 C 3.908197 33.118263 3.9212344 33.238899 3.9394531 33.355469 C 4.0783637 31.909755 4.699743 30.485572 5.7734375 29.376953 L 27.609375 6.8671875 C 28.837175 5.5995481 30.395948 5 31.998047 5 L 32.001953 5 C 33.604153 5 35.162926 5.5994281 36.390625 6.8671875 L 58.117188 29.376953 C 59.259951 30.556947 59.987088 32.094224 60.076172 33.634766 C 60.089939 33.429418 60.093815 33.216764 60.091797 32.988281 C 60.091497 32.956481 60.091797 32.912906 60.091797 32.878906 C 60.070597 31.257546 59.320386 29.619352 58.117188 28.376953 L 36.390625 5.8671875 C 35.162926 4.5994281 33.604153 4 32.001953 4 L 31.998047 4 z M 17.898438 39.826172 C 17.147409 41.969114 10.931641 41.069941 10.931641 43.96875 C 10.931641 44.148744 10.962341 44.310607 11.009766 44.462891 C 11.790637 41.91448 18.546825 43.037663 17.953125 40.029297 C 17.939023 39.957827 17.915937 39.89457 17.898438 39.826172 z M 44.216797 42.066406 C 44.182694 42.24545 44.165829 42.436519 44.181641 42.662109 C 44.231471 45.59227 47.344469 46.096086 48.345703 48.423828 C 48.416328 48.199593 48.456849 47.959191 48.460938 47.701172 C 47.642659 45.243916 44.548613 44.747146 44.216797 42.066406 z M 57.457031 42.542969 C 57.013271 42.528969 56.565739 42.564144 56.25 42.652344 C 55.65484 42.823944 52.836159 42.92448 53.068359 45.068359 C 53.110914 45.086208 53.159849 45.101426 53.203125 45.119141 C 53.761445 43.890123 55.759418 43.793791 56.25 43.652344 C 56.565739 43.564144 57.013271 43.528969 57.457031 43.542969 C 58.499771 43.581498 59.657605 43.994929 59.949219 44.941406 C 59.958327 44.908783 59.973081 44.881788 59.980469 44.847656 C 60.328969 43.240197 58.78857 42.592169 57.457031 42.542969 z M 24.976562 49.613281 C 24.405374 51.254222 21.02755 51.377531 21.660156 53.626953 C 22.220529 52.014962 25.570297 51.877115 24.976562 49.613281 z M 13.892578 49.679688 C 13.644718 49.707887 13.476615 49.806138 13.234375 49.898438 C 11.653386 50.499961 10.499274 51.6438 11.111328 52.412109 C 11.449128 51.845058 12.261068 51.268755 13.234375 50.898438 C 13.476615 50.806138 13.644718 50.707887 13.892578 50.679688 C 14.140377 50.651488 14.406976 50.658487 14.660156 50.679688 C 15.715924 50.772541 16.709383 51.223736 17.306641 51.482422 C 17.972893 51.062737 17.93043 50.912854 17.84375 50.667969 C 17.62377 50.711969 16.179456 49.813308 14.660156 49.679688 C 14.406976 49.658487 14.140377 49.651488 13.892578 49.679688 z M 37.310547 54.683594 C 36.678143 55.815896 38.364628 56.581297 38.871094 57.533203 C 39.503442 56.400946 37.816985 55.635523 37.310547 54.683594 z"/>
</svg>
